X:6234
T:Gigouillette
R:Gigue
A:Normandie
O:France
M:2/4
L:1/8
Q:108
K:Bb
FB|d>c de| dc FA| c>B cd| B2 FB|d>c de| dc FA|!
c>B cd|B2 "," FB/2d/2|FB/2d/2 Fd/2e/2|dc "," FA/2c/2| FA/2c/2 FA/2c/2|!
B2 "," FB/2d/2| FB/2d/2 Fd/2e/2|dc ","FA/2c/2|FB/2d/2 Fd/2e/2|B2 z2||
